X: 28905
T: Na Ceannabháin Bhána
R: slip jig
M: 9/8
K: Gmajor
B2 G AGE GED|E/F/GE DEG A2 c|BAG AGE GED|E/F/GE DEF G2 A:|
Bd/d/d edB BAG|Bd/d/d edB A3|Bd/d/d edB BAG|GED DEF G3:|

